X:1
T:Handsome Young Maidens
R:jig
C:Charlie Lennon
D:Brian McNamara. Fort of Jewels, Charlie lennon Musical Memories
Z:Paul Stewart Cranford (P.S.C.), <http://www.cranfordpub.com>
L:1/8
M:6/8
Q:300
K:A
a|{b}aed cdB|Ace ~a3|bee dee|Bee bag|
aed cdB|Ace ~a3|bge dBe|BAG A2:|
|:B|c2 A EAc|d2 f fed|cde aec|B2 f fed|
[1c2 A EAc|dff fed|cde aec|dBG A2:|
[2cAA eAA|dff fed|ede fdf|gfg a2|]
